public/img/warranty-bg.svg

<svg width="124" height="147" viewBox="0 0 124 147" fill="none" xmlns="http://www.w3.org/2000/svg">
<path d="M120.929 17.4801L63.239 0.18174C62.4312 -0.0605801 61.5703 -0.0605801 60.7622 0.18174L3.07053 17.4801C1.24815 18.0264 0 19.7032 0 21.605V85.032C0 93.2818 3.3417 101.727 9.93174 110.133C14.9648 116.552 21.9283 122.999 30.628 129.293C45.243 139.867 59.6344 146.353 60.24 146.624C60.7998 146.875 61.4002 147 62.0006 147C62.601 147 63.2013 146.875 63.7612 146.624C64.3665 146.353 78.7576 139.867 93.3726 129.293C102.072 122.999 109.035 116.552 114.069 110.133C120.659 101.727 124 93.2821 124 85.032V21.605C124 19.7032 122.752 18.0264 120.929 17.4801Z" fill="#19E0BE"/>
</svg>

<svg width="124" height="147" fill="none" xmlns="http://www.w3.org/2000/svg"><path d="M120.929 17.48 63.239.182a4.31 4.31 0 0 0-2.477 0L3.071 17.48A4.307 4.307 0 0 0 0 21.605v63.427c0 8.25 3.342 16.695 9.932 25.101 5.033 6.419 11.996 12.866 20.696 19.16 14.615 10.574 29.006 17.06 29.612 17.331a4.302 4.302 0 0 0 3.521 0c.605-.271 14.997-6.757 29.612-17.331 8.699-6.294 15.662-12.741 20.696-19.16 6.59-8.406 9.931-16.85 9.931-25.101V21.605a4.306 4.306 0 0 0-3.071-4.125Z" fill="#19E0BE"/></svg>
